X:33
T:The Celebrated Trumpet Tune
Z:Jack Campin, http://www.campin.me.uk/
F:Jack Campin's Nine-Note Tunebook
% last edit 03-02-2013
Z:Nathaniel Gow
N:the trumpet fanfare used to announce the judge delivering the
N:sentence of death in Scotland, until the early 19th century.
M:3/4
L:1/8
Q:1/4=56
K:F
 F>G|A>G  A>G A>G|(F2  C2) F>G| A2   BAGF   |{A}G4
~F>G|A>G  A>G A>G|(F2  C)z F>G|~A>B .c.A.B.G|   F4:|
~A>B|c2  (dc``BA)| B2 (cB``AG)| A2  (BAGF)  |{A}G4
 F>G|A>G  A>G A>G|(F2  C)z F>G|~A>B .c.A.B.G|   F4:|

